X: 10021
T: CHRISTINE'S WALTZ
C: Bob McQuillen 22 June 93
B: Bob's Note Book 10 #21
%R: waltz
Z: 2021 John Chambers <jc:trillian.mit.edu>
M: 3/4
L: 1/4
K: G
G/A/ \
| "G"BGE | DGB | dg>f | "C"e2f/g/ | "G"d>ed | "Em"BGA | "Am"B>cB | "D7"A2G/A/ |
| "G"BGE | DGB | dg>f | "C"e>fg | "G"d>ed | "C"gdc | "D7"B>GA | "G"G2 :|
|: F/G/ \
| "D7"AFE | DGA | "G"B>cB | "D7"A2F/G/ | AFE | DGB | "G"dBG | "D7"A2B/c/ |
| "G"d>ed | dBd | "C"g>fe | "G"d2c | "G"BG"C"E | "G"Dc"C"B | "D7"AGF | "G"G2 :|
%%begintext align
%% Christine Balfa hails
%% from Breaux Bridge, LA - She makes the most
%% beautiful music Cajun Style wih her great group
%% "Toujours Balfa" - and boy can she sing! Hope you get
%% to hear them and her -- it's a real treat -- love to you,
%% Christine!
%%endtext

%%sep 1 1 500

%%sep 1 1 500

